X:162
T:Off to California
R:hornpipe
C:Trad
M:4/4
L:1/8
K:G
(3DEF |:GFGB AGED| GBdg e2 (3def | gfgd edBG | ABAG E2 (3DEF |
      | GFGB AGED| GBdg e2 (3def | gfgd edBG |1 AcBA G2 (3DEF:|2 AcBA G2 g| 
      |:gfeg fedf| edef edBd | gfgd edBG | ABAG E2 (3DEF |
      | GFGB AGED|GBdg e2 (3def | gfgd edBG |1 AcBA G2 g:|2 AcBA G2 (3DEF |
